X:1
T:Quasi adagio
T:Children's Dance
T:Béla Bartók Revised and Arranged by the Composer, January 1945 
T:Book 1 (after Hungarian Folksongs)
T:For Children Nr 10, Sz 42
C:Bela bartok
%%score { 1 | 2 }
L:1/8
Q:1/4=160
M:2/4
K:G
V:1 treble nm="Piano"
V:2 bass 
V:1
"^Allegro molto,"!f! z4 | z4 | z4 | z4 | (!^!!1!e!^!!4!g!^!!3!f!^!!2!e) | %5
 (!^!!1!e!^!!4!g!^!!3!f!^!!2!e) | (!^!e!^!g!^!f!^!e) | !tenuto!!1!e2 !tenuto!!2!e2 | (egfe) | %9
 (egfe) | (egfe) | !tenuto!e2 !tenuto!e2 | (!3!e!1!d)!2!d!1!d | (!3!e!1!d)!2!d!1!d | %14
!ff! (!2!egfe) | !tenuto!!1!e2 !tenuto!!2!e2 |!f! (!3!e!1!d)!2!d!1!d | (!3!e!1!c)!2!c!1!c | %18
"_poco dim." (!3!e!1!B)!2!B!1!B | !tenuto!!2!A2 !tenuto!!1!A2 | z4 | z4 | z4 | z4 | (!1!e!4!gfe) | %25
 (!1!e!4!gfe) | (!1!e!4!gfe) | !tenuto!!1!e2 !tenuto!!2!e2 | (egfe) | (egfe) | (egfe) | %31
 !tenuto!e2 !tenuto!e2 |!mf! (!3!e!1!d)!2!d!1!d | (!3!e!1!c)!2!c!1!c |!f! (!2!egfe) | %35
 !tenuto!!1!e2 !tenuto!!2!e2 |!mf! (!3!e!1!d)!2!d"_dim."!1!d | %37
[Q:1/4=140]"^T""^poco ritar" (!3!e!1!c)!2!c[Q:1/4=130]"^T"!1!c | (ed)[Q:1/4=120]"^T"dd | %39
[Q:1/4=110]"^T" !tenuto!A2 !tenuto!A2 |!f![Q:1/4=160]"^a tempo" z4 | A,B,!<(!EB, | A,B,EB, | %43
 A,B,ED | [A,CE]4!<)! |[Q:1/4=100]"^T" [A,CE]4- | [A,CE]4- | [A,CE]4 |] %48
V:2
!ped! !>!!5!A,!4!B,!1!EB, | !>!A,B,EB, | !>!A,B,EB, | !>!A,B,"^impetuoso"EB, | %4
 !>!!^!A,!^!B,!^!E!^!B,!ped-up! |!ped! !>!!^!A,!^!B,!^!E!^!B,!ped-up! | %6
!ped! !>!!^!A,!^!B,!^!E!^!D | !>!!5!A,!ped-up!!ped!!4!C!1!EC!ped-up! |!ped! !>!A,B,EB,!ped-up! | %9
!ped! !>!A,CEC!ped-up! |!ped! !>!A,DED!ped-up! |!ped! !>!A,CEC!ped-up! |!ped! !>!A,B,EB,!ped-up! | %13
!ped! !>!A,CEC!ped-up! |!ped! !>!!5!E,!2!B,!1!EB, | !>!E,B,EB,!ped-up! | %16
!ped! !>!!5!A,!4!B,EB,!ped-up! |!ped! !>!A,CEC!ped-up! |!ped! !>!!5!E,!2!D!1!FD!ped-up! | %19
!ped! !>!!5!A,!3!CEC!ped-up! |!f!!ped! !>!C,!2!G,!1!A,G, | !>!C,G,A,G, | !>!E,G,A,G, | %23
 !>!E,G,A,G, | !^!!5!E,G,A,G,!ped-up! |!ped! !^!!5!D,!2!G,A,G,!ped-up! |!ped! !^!!5!E,!3!G,B,G, | %27
 !>!E,G,B,G,!ped-up! |!ped! !^!!5!C,!2!G,A,G,!ped-up! |!ped! !^!!5!D,!2!G,A,G, | !^!!5!E,G,B,G, | %31
 !>!E,G,B,G,!ped-up! | !5!D,!3!F,A,F, | D,F,A,F, |!ped! !^!!5!E,!2!G,A,G, | E,G,A,G,!ped-up! | %36
 !5!D,!3!F,A,F, | D,F,A,F, | !5!D,!3!F,!1!B,F, | !5!D,!3!F,!1!CF, | A,,B,,E,B,, | %41
!ped! !5!A,,B,,E,B,, | A,,B,,E,B,, | A,,B,,E,B,, | [A,,C,E,]4!ped-up! |!ped! [A,,C,E,]4- | %46
 [A,,C,E,]4- | [A,,C,E,]4!ped-up! |] %48

